X: 086
M: C
L: 1/8
K: Bb
|:\
bfdB ecAF | E>G Cc {B}A2GF |\
bfdB ecAF | BdFA B2B,2 :|\
|:\
fdc=B cded | ecBA BcdF |\

